X: 19283
T: Ivy Leaf, The
R: reel
M: 4/4
K: Amixolydian
A2Ae cAec|Aece dBGB|Aged cdec|BEEF GABc|
cee2 cee^f|aece dBGB|Aged cdec|BEEF GABc|
eaag edBd|fgge decd|egag ed=cA|BEEF GABc|
egag edBd|fgge dBGB|AGAB =c2 cd|egaf gedB|

